logos/brain-initiative-dark.svg

<svg xmlns="http://www.w3.org/2000/svg" width="358" height="280" style="shape-rendering:geometricPrecision;text-rendering:geometricPrecision;image-rendering:optimizeQuality;fill-rule:evenodd;clip-rule:evenodd"><path style="opacity:1" fill="#07182b" d="M-.5-.5h358v280H-.5V-.5z"/><path style="opacity:1" fill="#f2f3f4" d="M40.5 45.5h276v4h-276v-4z"/><path style="opacity:1" fill="#55bcef" d="M187.5 68.5c1.322-.17 2.489.163 3.5 1l23 56c1.174 4.161-.159 5.495-4 4l-5.5-13c-8.559-.68-17.059-1.347-25.5-2-.684-1.284-.517-2.451.5-3.5l23-1a1818.504 1818.504 0 0 0-14-31.5 429434.06 429434.06 0 0 1-21.5 51c-2.085 1.147-3.585.48-4.5-2a2354.729 2354.729 0 0 1 25-59z"/><path style="opacity:1" fill="#5be" d="M41.5 68.5c9.006-.166 18.006 0 27 .5C78.644 72.172 82.477 79.005 80 89.5c-.883 2.602-2.383 4.77-4.5 6.5 9.44 6.91 11.606 15.743 6.5 26.5a25.558 25.558 0 0 1-6.5 5.5 218.317 218.317 0 0 1-35 1.5c-.167-14.67 0-29.337.5-44 1.333-1.333 2.667-1.333 4 0 .5 12.996.667 25.996.5 39 9.747.42 19.414-.08 29-1.5 8.326-7.856 7.992-15.189-1-22a168.857 168.857 0 0 0-24-2c-1.333-1.333-1.333-2.667 0-4 7.438-.07 14.772-.737 22-2 7.485-8.245 6.151-14.578-4-19l-26-1c-1.228-1.49-1.228-2.99 0-4.5z"/><path style="opacity:1" fill="#57bff3" d="M104.5 68.5c1.322-.17 2.489.163 3.5 1a870.065 870.065 0 0 1 0 59c-1.333 1.333-2.667 1.333-4 0a607.96 607.96 0 0 1 .5-60z"/><path style="opacity:1" fill="#54b9ec" d="M113.5 68.5c7.008-.166 14.008 0 21 .5 11.846 4.86 15.679 13.36 11.5 25.5a20.233 20.233 0 0 1-7.5 7.5 129.006 129.006 0 0 1-26 1.5c-.214-1.644.12-3.144 1-4.5 8.103-.063 16.103-.73 24-2 6.354-5.129 7.52-11.296 3.5-18.5a11.529 11.529 0 0 0-4.5-3.5 106.872 106.872 0 0 0-24-1.5c-.134-1.791.199-3.458 1-5z"/><path style="opacity:1" fill="#53b7ea" d="M237.5 68.5a72.442 72.442 0 0 1 12 .5c.88 1.356 1.214 2.856 1 4.5a84.94 84.94 0 0 1-13-.5c-1.228-1.49-1.228-2.99 0-4.5z"/><path style="opacity:1" fill="#56bdf1" d="M274.5 68.5c1.871.359 3.371 1.359 4.5 3a964.518 964.518 0 0 1 20.5 31c-1.286 2.071-2.953 2.404-5 1l-15.5-23-1 48c-1.333 1.333-2.667 1.333-4 0a607.96 607.96 0 0 1 .5-60z"/><path style="opacity:1" fill="#5be" d="M312.5 68.5c1.322-.17 2.489.163 3.5 1a870.065 870.065 0 0 1 0 59c-1.667 2.667-3.333 2.667-5 0a179.617 179.617 0 0 0-10-15 10.098 10.098 0 0 1-1.5-6 8.43 8.43 0 0 1 4 .5 183.542 183.542 0 0 1 7.5 10.5c.181-16.74.681-33.407 1.5-50z"/><path style="opacity:1" fill="#59c3f8" d="M241.5 77.5h4v44h-4v-44z"/><path style="opacity:1" fill="#5be" d="M130.5 106.5c1.871.359 3.371 1.359 4.5 3a131.744 131.744 0 0 0 11 16 8.43 8.43 0 0 1 .5 4 8.43 8.43 0 0 1-4-.5 170.369 170.369 0 0 1-12.5-17.5c-.64-1.765-.473-3.432.5-5z"/><path style="opacity:1" fill="#53b7e9" d="M237.5 125.5h13c.214 1.644-.12 3.144-1 4.5-4 .667-8 .667-12 0-1.228-1.49-1.228-2.99 0-4.5z"/><path style="opacity:1" fill="#e6e7e9" d="M186.5 151.5c1.322-.17 2.489.163 3.5 1a81.329 81.329 0 0 1 6.5 20c-2.09.05-3.423-.95-4-3a25.879 25.879 0 0 0-10-1c.333 3-1 4.333-4 4a94.819 94.819 0 0 1 8-21z"/><path style="opacity:1" fill="#e1e3e5" d="M42.5 151.5c.996-.086 1.83.248 2.5 1a90.496 90.496 0 0 1 0 19c-1.011.837-2.178 1.17-3.5 1a116.746 116.746 0 0 1 1-21z"/><path style="opacity:1" fill="#f5f6f7" d="M64.5 151.5c2.403-.107 4.237.893 5.5 3a78.703 78.703 0 0 0 9 12c.5-4.989.666-9.989.5-15h3v21c-2.763-.244-4.93-1.577-6.5-4a102.223 102.223 0 0 1-8-11c-.5 4.989-.666 9.989-.5 15h-3v-21z"/><path style="opacity:1" fill="#e1e3e6" d="M102.5 151.5c.996-.086 1.829.248 2.5 1 .5 6.658.666 13.325.5 20-1.322.17-2.489-.163-3.5-1-.792-6.747-.626-13.414.5-20z"/><path style="opacity:1" fill="#e3e5e7" d="M123.5 151.5c5.344-.166 10.677.001 16 .5 1.333.667 1.333 1.333 0 2a18.453 18.453 0 0 1-6 .5 145.053 145.053 0 0 1-.5 17c-1.011.837-2.178 1.17-3.5 1v-18a13.116 13.116 0 0 1-7-1c.363-.683.696-1.35 1-2z"/><path style="opacity:1" fill="#e1e3e5" d="M158.5 151.5c.996-.086 1.829.248 2.5 1a90.455 90.455 0 0 1 0 19c-1.011.837-2.178 1.17-3.5 1a116.8 116.8 0 0 1 1-21z"/><path style="opacity:1" fill="#e6e7e9" d="M210.5 151.5h17v3h-7v18c-1.322.17-2.489-.163-3.5-1a145.053 145.053 0 0 1-.5-17h-6v-3z"/><path style="opacity:1" fill="#e0e2e4" d="M245.5 151.5c.996-.086 1.829.248 2.5 1 .5 6.658.666 13.325.5 20h-4a116.8 116.8 0 0 1 1-21z"/><path style="opacity:1" fill="#eaebed" d="M266.5 151.5c.996-.086 1.829.248 2.5 1a205.566 205.566 0 0 0 6 15 205.566 205.566 0 0 1 6-15c1.545-1.321 2.711-.988 3.5 1a620.996 620.996 0 0 1-8 18.5c-1.933.783-3.433.283-4.5-1.5a523.513 523.513 0 0 0-6.5-17c.363-.683.696-1.35 1-2z"/><path style="opacity:1" fill="#e7e9ea" d="M302.5 151.5h15v3h-12v6h10v3h-10v6a60.931 60.931 0 0 1 11 .5c.457.414.791.914 1 1.5-5.219 1.304-10.386 1.304-15.5 0-.792-6.747-.626-13.414.5-20z"/><path style="opacity:1" fill="#222f41" d="M187.5 157.5c2.085 2.184 3.085 4.851 3 8h-6c.222-3.004 1.222-5.671 3-8z"/><path style="opacity:1" fill="#eff0f1" d="M41.5 192.5h275v4h-276c-.067-1.459.266-2.792 1-4z"/><path style="opacity:1" fill="#e6e7e9" d="M76.5 216.5c2.412-.363 3.912.637 4.5 3l6.5 17c-.333 1-1 1.667-2 2-1.45-1.155-2.45-2.655-3-4.5-3-.667-6-.667-9 0-.55 1.845-1.55 3.345-3 4.5-1-.333-1.667-1-2-2a360.099 360.099 0 0 1 8-20z"/><path style="opacity:1" fill="#eaebed" d="M103.5 216.5c1.953 5.574 2.62 11.574 2 18a40.914 40.914 0 0 1 9 .5c1.333 1 1.333 2 0 3-3.923.793-7.756.626-11.5-.5-.795-7.08-.628-14.08.5-21z"/><path style="opacity:1" fill="#dbdee1" d="M130.5 216.5c.996-.086 1.829.248 2.5 1 .499 5.657.666 11.324.5 17a32.462 32.462 0 0 1 8 .5c1.333 1 1.333 2 0 3-3.923.793-7.756.626-11.5-.5-.795-7.08-.628-14.08.5-21z"/><path style="opacity:1" fill="#dfe1e4" d="M157.5 216.5c.996-.086 1.829.248 2.5 1 .5 6.658.666 13.325.5 20h-4a116.8 116.8 0 0 1 1-21z"/><path style="opacity:1" fill="#ecedef" d="M183.5 217.5c1.322-.17 2.489.163 3.5 1a103.559 103.559 0 0 1 7.5 20c-2.821.184-4.488-1.149-5-4-4.851-1.954-8.517-.787-11 3.5a4.934 4.934 0 0 1-3 .5 99.983 99.983 0 0 1 8-21z"/><path style="opacity:1" fill="#f4f5f5" d="M221.5 230.5c.283.789.783 1.456 1.5 2 .499-4.655.666-9.321.5-14 .709-.904 1.709-1.237 3-1 .166 6.675 0 13.342-.5 20a3.647 3.647 0 0 1-1.5 1 252.098 252.098 0 0 1-12.5-14l-1 13a3.647 3.647 0 0 1-1.5 1 111.148 111.148 0 0 1-1-21 4.934 4.934 0 0 1 3 .5 174.328 174.328 0 0 1 10 12.5z"/><path style="opacity:1" fill="#dcdee1" d="M273.5 217.5h15v3h-12v5c3.35-.165 6.683.002 10 .5 1.333 1 1.333 2 0 3-3.317.498-6.65.665-10 .5v5a60.931 60.931 0 0 1 11 .5c.837 1.011 1.17 2.178 1 3.5a55.155 55.155 0 0 1-14.5-1c-.5-6.658-.666-13.325-.5-20z"/><path style="opacity:1" fill="#e7e9eb" d="M248.5 217.5c4.066.346 7.899.679 11.5 1 1.111 7.818-.389 8.652-4.5 2.5-9.701-.779-12.701 3.387-9 12.5 4.255 3.867 8.588 3.867 13 0 1.021.502 1.188 1.168.5 2-6.947 4.524-13.28 3.858-19-2-2.58-7.773-.08-13.106 7.5-16z"/><path style="opacity:1" fill="#68727e" d="M223.5 218.5a98.432 98.432 0 0 1-.5 14c-.717-.544-1.217-1.211-1.5-2l2-12z"/><path style="opacity:1" fill="#1b293b" d="M77.5 221.5a55.669 55.669 0 0 1 4 8c-2.333 1.333-4.667 1.333-7 0 1.4-2.535 2.4-5.202 3-8z"/><path style="opacity:1" fill="#142235" d="M187.5 229.5c-1.667 1.333-3.333 1.333-5 0 1.667-9.333 3.333-9.333 5 0z"/><path style="opacity:1" fill="#8c949c" d="M182.5 229.5c1.667 1.333 3.333 1.333 5 0 .543.06.876.393 1 1-2.333 1.333-4.667 1.333-7 0 .124-.607.457-.94 1-1z"/></svg>

<?xml version="1.0" encoding="UTF-8"?>
<!DOCTYPE svg PUBLIC "-//W3C//DTD SVG 1.1//EN" "http://www.w3.org/Graphics/SVG/1.1/DTD/svg11.dtd">
<svg xmlns="http://www.w3.org/2000/svg" version="1.1" width="358px" height="280px" style="shape-rendering:geometricPrecision; text-rendering:geometricPrecision; image-rendering:optimizeQuality; fill-rule:evenodd; clip-rule:evenodd" xmlns:xlink="http://www.w3.org/1999/xlink">
<g><path style="opacity:1" fill="#07182b" d="M -0.5,-0.5 C 118.833,-0.5 238.167,-0.5 357.5,-0.5C 357.5,92.8333 357.5,186.167 357.5,279.5C 238.167,279.5 118.833,279.5 -0.5,279.5C -0.5,186.167 -0.5,92.8333 -0.5,-0.5 Z"/></g>
<g><path style="opacity:1" fill="#f2f3f4" d="M 40.5,45.5 C 132.5,45.5 224.5,45.5 316.5,45.5C 316.5,46.8333 316.5,48.1667 316.5,49.5C 224.5,49.5 132.5,49.5 40.5,49.5C 40.5,48.1667 40.5,46.8333 40.5,45.5 Z"/></g>
<g><path style="opacity:1" fill="#55bcef" d="M 187.5,68.5 C 188.822,68.33 189.989,68.6634 191,69.5C 198.667,88.1667 206.333,106.833 214,125.5C 215.174,129.661 213.841,130.995 210,129.5C 208.167,125.167 206.333,120.833 204.5,116.5C 195.941,115.82 187.441,115.153 179,114.5C 178.316,113.216 178.483,112.049 179.5,111C 187.167,110.667 194.833,110.333 202.5,110C 197.926,99.4411 193.26,88.9411 188.5,78.5C 181.338,95.4914 174.172,112.491 167,129.5C 164.915,130.647 163.415,129.98 162.5,127.5C 170.59,107.662 178.924,87.9951 187.5,68.5 Z"/></g>
<g><path style="opacity:1" fill="#55bbee" d="M 41.5,68.5 C 50.5062,68.3336 59.5062,68.5002 68.5,69C 78.6441,72.1721 82.4774,79.0054 80,89.5C 79.1166,92.1024 77.6166,94.2691 75.5,96C 84.9392,102.91 87.1058,111.743 82,122.5C 80.1266,124.709 77.96,126.542 75.5,128C 63.9097,129.436 52.243,129.936 40.5,129.5C 40.3334,114.83 40.5001,100.163 41,85.5C 42.3333,84.1667 43.6667,84.1667 45,85.5C 45.4999,98.4957 45.6666,111.496 45.5,124.5C 55.2471,124.92 64.9138,124.42 74.5,123C 82.8256,115.144 82.4922,107.811 73.5,101C 65.5767,99.7645 57.5767,99.0979 49.5,99C 48.1667,97.6667 48.1667,96.3333 49.5,95C 56.9385,94.9301 64.2718,94.2635 71.5,93C 78.9847,84.7554 77.6514,78.4221 67.5,74C 58.8333,73.6667 50.1667,73.3333 41.5,73C 40.2721,71.5098 40.2721,70.0098 41.5,68.5 Z"/></g>
<g><path style="opacity:1" fill="#57bff3" d="M 104.5,68.5 C 105.822,68.33 106.989,68.6634 108,69.5C 108.667,89.1667 108.667,108.833 108,128.5C 106.667,129.833 105.333,129.833 104,128.5C 103.18,108.427 103.346,88.4269 104.5,68.5 Z"/></g>
<g><path style="opacity:1" fill="#54b9ec" d="M 113.5,68.5 C 120.508,68.3337 127.508,68.5004 134.5,69C 146.346,73.8594 150.179,82.3594 146,94.5C 144.167,97.6667 141.667,100.167 138.5,102C 129.902,103.376 121.235,103.876 112.5,103.5C 112.286,101.856 112.62,100.356 113.5,99C 121.603,98.9367 129.603,98.27 137.5,97C 143.854,91.8711 145.02,85.7044 141,78.5C 139.786,76.9512 138.286,75.7845 136.5,75C 128.585,73.5989 120.585,73.0989 112.5,73.5C 112.366,71.7085 112.699,70.0418 113.5,68.5 Z"/></g>
<g><path style="opacity:1" fill="#53b7ea" d="M 237.5,68.5 C 241.514,68.3345 245.514,68.5012 249.5,69C 250.38,70.3561 250.714,71.8561 250.5,73.5C 246.154,73.6657 241.821,73.499 237.5,73C 236.272,71.5098 236.272,70.0098 237.5,68.5 Z"/></g>
<g><path style="opacity:1" fill="#56bdf1" d="M 274.5,68.5 C 276.371,68.8588 277.871,69.8588 279,71.5C 286.03,81.6977 292.863,92.0311 299.5,102.5C 298.214,104.571 296.547,104.904 294.5,103.5C 289.333,95.8333 284.167,88.1667 279,80.5C 278.667,96.5 278.333,112.5 278,128.5C 276.667,129.833 275.333,129.833 274,128.5C 273.18,108.427 273.346,88.4269 274.5,68.5 Z"/></g>
<g><path style="opacity:1" fill="#55bbee" d="M 312.5,68.5 C 313.822,68.33 314.989,68.6634 316,69.5C 316.667,89.1667 316.667,108.833 316,128.5C 314.333,131.167 312.667,131.167 311,128.5C 307.915,123.328 304.581,118.328 301,113.5C 299.872,111.655 299.372,109.655 299.5,107.5C 300.873,107.343 302.207,107.51 303.5,108C 306.123,111.412 308.623,114.912 311,118.5C 311.181,101.76 311.681,85.0929 312.5,68.5 Z"/></g>
<g><path style="opacity:1" fill="#59c3f8" d="M 241.5,77.5 C 242.833,77.5 244.167,77.5 245.5,77.5C 245.5,92.1667 245.5,106.833 245.5,121.5C 244.167,121.5 242.833,121.5 241.5,121.5C 241.5,106.833 241.5,92.1667 241.5,77.5 Z"/></g>
<g><path style="opacity:1" fill="#55bbee" d="M 130.5,106.5 C 132.371,106.859 133.871,107.859 135,109.5C 138.276,115.108 141.943,120.442 146,125.5C 146.49,126.793 146.657,128.127 146.5,129.5C 145.127,129.657 143.793,129.49 142.5,129C 137.965,123.431 133.799,117.597 130,111.5C 129.36,109.735 129.527,108.068 130.5,106.5 Z"/></g>
<g><path style="opacity:1" fill="#53b7e9" d="M 237.5,125.5 C 241.833,125.5 246.167,125.5 250.5,125.5C 250.714,127.144 250.38,128.644 249.5,130C 245.5,130.667 241.5,130.667 237.5,130C 236.272,128.51 236.272,127.01 237.5,125.5 Z"/></g>
<g><path style="opacity:1" fill="#e6e7e9" d="M 186.5,151.5 C 187.822,151.33 188.989,151.663 190,152.5C 193.038,158.904 195.205,165.57 196.5,172.5C 194.41,172.55 193.077,171.55 192.5,169.5C 189.232,168.513 185.898,168.18 182.5,168.5C 182.833,171.5 181.5,172.833 178.5,172.5C 180.349,165.145 183.015,158.145 186.5,151.5 Z"/></g>
<g><path style="opacity:1" fill="#e1e3e5" d="M 42.5,151.5 C 43.4959,151.414 44.3292,151.748 45,152.5C 45.6667,158.833 45.6667,165.167 45,171.5C 43.9887,172.337 42.8221,172.67 41.5,172.5C 41.2045,165.412 41.5379,158.412 42.5,151.5 Z"/></g>
<g><path style="opacity:1" fill="#f5f6f7" d="M 64.5,151.5 C 66.9032,151.393 68.7365,152.393 70,154.5C 72.6153,158.783 75.6153,162.783 79,166.5C 79.4993,161.511 79.6659,156.511 79.5,151.5C 80.5,151.5 81.5,151.5 82.5,151.5C 82.5,158.5 82.5,165.5 82.5,172.5C 79.7374,172.256 77.5707,170.923 76,168.5C 73.0887,165.01 70.422,161.344 68,157.5C 67.5007,162.489 67.3341,167.489 67.5,172.5C 66.5,172.5 65.5,172.5 64.5,172.5C 64.5,165.5 64.5,158.5 64.5,151.5 Z"/></g>
<g><path style="opacity:1" fill="#e1e3e6" d="M 102.5,151.5 C 103.496,151.414 104.329,151.748 105,152.5C 105.5,159.158 105.666,165.825 105.5,172.5C 104.178,172.67 103.011,172.337 102,171.5C 101.208,164.753 101.374,158.086 102.5,151.5 Z"/></g>
<g><path style="opacity:1" fill="#e3e5e7" d="M 123.5,151.5 C 128.844,151.334 134.177,151.501 139.5,152C 140.833,152.667 140.833,153.333 139.5,154C 137.527,154.495 135.527,154.662 133.5,154.5C 133.666,160.176 133.499,165.843 133,171.5C 131.989,172.337 130.822,172.67 129.5,172.5C 129.5,166.5 129.5,160.5 129.5,154.5C 127.076,154.808 124.743,154.474 122.5,153.5C 122.863,152.817 123.196,152.15 123.5,151.5 Z"/></g>
<g><path style="opacity:1" fill="#e1e3e5" d="M 158.5,151.5 C 159.496,151.414 160.329,151.748 161,152.5C 161.667,158.833 161.667,165.167 161,171.5C 159.989,172.337 158.822,172.67 157.5,172.5C 157.205,165.412 157.538,158.412 158.5,151.5 Z"/></g>
<g><path style="opacity:1" fill="#e6e7e9" d="M 210.5,151.5 C 216.167,151.5 221.833,151.5 227.5,151.5C 227.5,152.5 227.5,153.5 227.5,154.5C 225.167,154.5 222.833,154.5 220.5,154.5C 220.5,160.5 220.5,166.5 220.5,172.5C 219.178,172.67 218.011,172.337 217,171.5C 216.501,165.843 216.334,160.176 216.5,154.5C 214.5,154.5 212.5,154.5 210.5,154.5C 210.5,153.5 210.5,152.5 210.5,151.5 Z"/></g>
<g><path style="opacity:1" fill="#e0e2e4" d="M 245.5,151.5 C 246.496,151.414 247.329,151.748 248,152.5C 248.5,159.158 248.666,165.825 248.5,172.5C 247.167,172.5 245.833,172.5 244.5,172.5C 244.205,165.412 244.538,158.412 245.5,151.5 Z"/></g>
<g><path style="opacity:1" fill="#eaebed" d="M 266.5,151.5 C 267.496,151.414 268.329,151.748 269,152.5C 270.804,157.58 272.804,162.58 275,167.5C 276.804,162.42 278.804,157.42 281,152.5C 282.545,151.179 283.711,151.512 284.5,153.5C 281.927,159.725 279.26,165.892 276.5,172C 274.567,172.783 273.067,172.283 272,170.5C 269.931,164.794 267.765,159.128 265.5,153.5C 265.863,152.817 266.196,152.15 266.5,151.5 Z"/></g>
<g><path style="opacity:1" fill="#e7e9ea" d="M 302.5,151.5 C 307.5,151.5 312.5,151.5 317.5,151.5C 317.5,152.5 317.5,153.5 317.5,154.5C 313.5,154.5 309.5,154.5 305.5,154.5C 305.5,156.5 305.5,158.5 305.5,160.5C 308.833,160.5 312.167,160.5 315.5,160.5C 315.5,161.5 315.5,162.5 315.5,163.5C 312.167,163.5 308.833,163.5 305.5,163.5C 305.5,165.5 305.5,167.5 305.5,169.5C 309.182,169.335 312.848,169.501 316.5,170C 316.957,170.414 317.291,170.914 317.5,171.5C 312.281,172.804 307.114,172.804 302,171.5C 301.208,164.753 301.374,158.086 302.5,151.5 Z"/></g>
<g><path style="opacity:1" fill="#222f41" d="M 187.5,157.5 C 189.585,159.684 190.585,162.351 190.5,165.5C 188.5,165.5 186.5,165.5 184.5,165.5C 184.722,162.496 185.722,159.829 187.5,157.5 Z"/></g>
<g><path style="opacity:1" fill="#eff0f1" d="M 41.5,192.5 C 133.167,192.5 224.833,192.5 316.5,192.5C 316.5,193.833 316.5,195.167 316.5,196.5C 224.5,196.5 132.5,196.5 40.5,196.5C 40.4326,195.041 40.7659,193.708 41.5,192.5 Z"/></g>
<g><path style="opacity:1" fill="#e6e7e9" d="M 76.5,216.5 C 78.9115,216.137 80.4115,217.137 81,219.5C 83.1667,225.167 85.3333,230.833 87.5,236.5C 87.1667,237.5 86.5,238.167 85.5,238.5C 84.0495,237.345 83.0495,235.845 82.5,234C 79.5,233.333 76.5,233.333 73.5,234C 72.9505,235.845 71.9505,237.345 70.5,238.5C 69.5,238.167 68.8333,237.5 68.5,236.5C 70.9787,229.725 73.6454,223.058 76.5,216.5 Z"/></g>
<g><path style="opacity:1" fill="#eaebed" d="M 103.5,216.5 C 105.453,222.074 106.12,228.074 105.5,234.5C 108.518,234.335 111.518,234.502 114.5,235C 115.833,236 115.833,237 114.5,238C 110.577,238.793 106.744,238.626 103,237.5C 102.205,230.42 102.372,223.42 103.5,216.5 Z"/></g>
<g><path style="opacity:1" fill="#dbdee1" d="M 130.5,216.5 C 131.496,216.414 132.329,216.748 133,217.5C 133.499,223.157 133.666,228.824 133.5,234.5C 136.187,234.336 138.854,234.503 141.5,235C 142.833,236 142.833,237 141.5,238C 137.577,238.793 133.744,238.626 130,237.5C 129.205,230.42 129.372,223.42 130.5,216.5 Z"/></g>
<g><path style="opacity:1" fill="#dfe1e4" d="M 157.5,216.5 C 158.496,216.414 159.329,216.748 160,217.5C 160.5,224.158 160.666,230.825 160.5,237.5C 159.167,237.5 157.833,237.5 156.5,237.5C 156.205,230.412 156.538,223.412 157.5,216.5 Z"/></g>
<g><path style="opacity:1" fill="#ecedef" d="M 183.5,217.5 C 184.822,217.33 185.989,217.663 187,218.5C 190.198,224.931 192.698,231.598 194.5,238.5C 191.679,238.684 190.012,237.351 189.5,234.5C 184.649,232.546 180.983,233.713 178.5,238C 177.552,238.483 176.552,238.649 175.5,238.5C 177.379,231.195 180.046,224.195 183.5,217.5 Z"/></g>
<g><path style="opacity:1" fill="#f4f5f5" d="M 221.5,230.5 C 221.783,231.289 222.283,231.956 223,232.5C 223.499,227.845 223.666,223.179 223.5,218.5C 224.209,217.596 225.209,217.263 226.5,217.5C 226.666,224.175 226.5,230.842 226,237.5C 225.586,237.957 225.086,238.291 224.5,238.5C 220.177,234.008 216.01,229.341 212,224.5C 211.667,228.833 211.333,233.167 211,237.5C 210.586,237.957 210.086,238.291 209.5,238.5C 208.503,231.532 208.17,224.532 208.5,217.5C 209.552,217.351 210.552,217.517 211.5,218C 215.047,222.041 218.38,226.208 221.5,230.5 Z"/></g>
<g><path style="opacity:1" fill="#dcdee1" d="M 273.5,217.5 C 278.5,217.5 283.5,217.5 288.5,217.5C 288.5,218.5 288.5,219.5 288.5,220.5C 284.5,220.5 280.5,220.5 276.5,220.5C 276.5,222.167 276.5,223.833 276.5,225.5C 279.85,225.335 283.183,225.502 286.5,226C 287.833,227 287.833,228 286.5,229C 283.183,229.498 279.85,229.665 276.5,229.5C 276.5,231.167 276.5,232.833 276.5,234.5C 280.182,234.335 283.848,234.501 287.5,235C 288.337,236.011 288.67,237.178 288.5,238.5C 283.57,238.803 278.737,238.469 274,237.5C 273.5,230.842 273.334,224.175 273.5,217.5 Z"/></g>
<g><path style="opacity:1" fill="#e7e9eb" d="M 248.5,217.5 C 252.566,217.846 256.399,218.179 260,218.5C 261.111,226.318 259.611,227.152 255.5,221C 245.799,220.221 242.799,224.387 246.5,233.5C 250.755,237.367 255.088,237.367 259.5,233.5C 260.521,234.002 260.688,234.668 260,235.5C 253.053,240.024 246.72,239.358 241,233.5C 238.42,225.727 240.92,220.394 248.5,217.5 Z"/></g>
<g><path style="opacity:1" fill="#68727e" d="M 223.5,218.5 C 223.666,223.179 223.499,227.845 223,232.5C 222.283,231.956 221.783,231.289 221.5,230.5C 222.167,226.5 222.833,222.5 223.5,218.5 Z"/></g>
<g><path style="opacity:1" fill="#1b293b" d="M 77.5,221.5 C 79.0057,223.975 80.3391,226.642 81.5,229.5C 79.1667,230.833 76.8333,230.833 74.5,229.5C 75.9,226.965 76.9,224.298 77.5,221.5 Z"/></g>
<g><path style="opacity:1" fill="#142235" d="M 187.5,229.5 C 185.833,230.833 184.167,230.833 182.5,229.5C 184.167,220.167 185.833,220.167 187.5,229.5 Z"/></g>
<g><path style="opacity:1" fill="#8c949c" d="M 182.5,229.5 C 184.167,230.833 185.833,230.833 187.5,229.5C 188.043,229.56 188.376,229.893 188.5,230.5C 186.167,231.833 183.833,231.833 181.5,230.5C 181.624,229.893 181.957,229.56 182.5,229.5 Z"/></g>
</svg>
